learning-site/svg (107).svg

<svg xmlns="http://www.w3.org/2000/svg" xmlns:xlink="http://www.w3.org/1999/xlink" viewBox="0 0 100 118" version="1.1"><!-- Generator: Sketch 51.3 (57544) - http://www.bohemiancoding.com/sketch --><title>manage-resources-in-azure</title><desc>Created with Sketch.</desc><defs><filter x="-1.6%" y="-1.5%" width="103.1%" height="106.0%" filterUnits="objectBoundingBox" id="filter-1"><feOffset dx="0" dy="2" in="SourceAlpha" result="shadowOffsetOuter1"></feOffset><feColorMatrix values="0 0 0 0 0   0 0 0 0 0   0 0 0 0 0  0 0 0 0.104534647 0" type="matrix" in="shadowOffsetOuter1" result="shadowMatrixOuter1"></feColorMatrix><feMerge><feMergeNode in="shadowMatrixOuter1"></feMergeNode><feMergeNode in="SourceGraphic"></feMergeNode></feMerge></filter></defs><g id="Badges-FINAL" stroke="none" stroke-width="1" fill="none" fill-rule="evenodd"><g id="Manage-Resources-in-Azure" transform="translate(-576.000000, -126.000000)"><g id="manage-resources-in-azure" transform="translate(576.000000, 126.000000)"><path d="M44.7425,3.49663266 C46.3745,2.49887755 48.1865,2 50,2 C51.8135,2 53.627,2.49887755 55.256,3.49663266 L92.591,26.3316189 C95.933,28.3773408 98,32.2031485 98,36.3529027 L98,81.6470973 C98,85.7952317 95.933,89.6242789 92.591,91.6683811 L55.256,114.504987 C53.627,115.501122 51.8135,116 50,116 C48.1865,116 46.3745,115.501122 44.7425,114.504987 L7.409,91.6683811 C4.0655,89.6242789 2,85.7952317 2,81.6470973 L2,36.3529027 C2,32.2031485 4.0655,28.3773408 7.409,26.3316189 L44.7425,3.49663266 Z" id="Trophy-1" fill="#D9EAF8"></path><path d="M20.8690536,77.5851823 L11.9652873,77.5851823 C8.96500008,77.5851823 6.52409688,75.1442791 6.52409688,72.1439918 C6.52409688,69.1437046 8.96500008,66.7028014 11.9652873,66.7028014 C12.2406314,66.7028014 12.5174247,66.7276775 12.8145088,66.780091 C13.8666124,63.2158293 17.1122924,60.7669572 20.8690536,60.7669572 C25.505947,60.7669572 29.2781661,64.5391763 29.2781661,69.1760698 C29.2781661,73.8129632 25.505947,77.5851823 20.8690536,77.5851823 Z" id="Cloud" fill="#FFFFFF" fill-rule="nonzero"></path><g id="Timer" filter="url(#filter-1)" transform="translate(18.000000, 26.500000)"><g id="Stand" transform="translate(9.000000, 39.440051)"><path d="M44,23.001 L2,23.001 C0.895,23.001 0,22.105 0,21.001 C0,19.896 0.895,19.001 2,19.001 L44,19.001 C45.104,19.001 46,19.896 46,21.001 C46,22.105 45.104,23.001 44,23.001" id="Fill-453" fill="#182A37"></path><polygon id="Fill-455" fill="#182A37" points="20 21.001 26 21.001 26 0.001 20 0.001"></polygon><path d="M20,2 L20,3 L22,3 C22.552,3 23,3.448 23,4 L23,16 L26,16 L26,2 L20,2" id="Fill-473" fill="#12202B"></path><path d="M0,21.001 C0,22.105 0.896,23.001 2,23.001 L44,23.001 C45.104,23.001 46,22.105 46,21.001 L46,21 L0,21 L0,21.001" id="Fill-474" fill="#12202B"></path><path d="M31,25.001 C31,25.551 30.55,26.001 30,26.001 L16,26.001 C15.45,26.001 15,25.551 15,25.001 L15,17.001 C15,16.451 15.45,16.001 16,16.001 L30,16.001 C30.55,16.001 31,16.451 31,17.001 L31,25.001" id="Fill-475" fill="#30404D"></path><path d="M30,16.001 L23,16.001 L23,22 C23,23.105 22.105,24 21,24 L15,24 L15,25.001 C15,25.551 15.45,26.001 16,26.001 L30,26.001 C30.55,26.001 31,25.551 31,25.001 L31,17.001 C31,16.451 30.55,16.001 30,16.001" id="Fill-476" fill="#182A37"></path></g><g><path d="M60,10 L4,10 C1.794,10 0,11.794 0,14 L0,42 C0,44.206 1.794,46 4,46 L60,46 C62.205,46 64,44.206 64,42 L64,14 C64,11.794 62.205,10 60,10" id="Fill-335" fill="#30404D"></path><path d="M4,46 L60,46 C62.209,46 64,44.209 64,42 L64,14 C64,11.791 62.209,10 60,10 L32,10 L32,40 C32,41.105 31.105,42 30,42 L0,42 C0,44.206 1.794,46 4,46" id="Fill-336" fill="#182A37"></path><path d="M19,18 C13.486,18 9,22.486 9,28 C9,33.514 13.486,38 19,38 C24.514,38 29,33.514 29,28 C29,22.486 24.514,18 19,18" id="Fill-337" fill="#E1E4E1"></path><path d="M45,18 C39.486,18 35,22.486 35,28 C35,33.514 39.486,38 45,38 C50.514,38 55,33.514 55,28 C55,22.486 50.514,18 45,18" id="Fill-338" fill="#E1E4E1"></path><path d="M45,18 C39.486,18 35,22.486 35,28 C35,33.514 39.486,38 45,38 C50.514,38 55,33.514 55,28 C55,22.486 50.514,18 45,18 Z M45,20 C49.411,20 53,23.589 53,28 C53,32.411 49.411,36 45,36 C40.589,36 37,32.411 37,28 C37,23.589 40.589,20 45,20 Z" id="Fill-339" fill="#C5CCCD"></path><path d="M19,18 C13.486,18 9,22.486 9,28 C9,33.514 13.486,38 19,38 C24.514,38 29,33.514 29,28 C29,22.486 24.514,18 19,18 Z M19,20 C23.411,20 27,23.589 27,28 C27,32.411 23.411,36 19,36 C14.589,36 11,32.411 11,28 C11,23.589 14.589,20 19,20 Z" id="Fill-340" fill="#C5CCCD"></path><polygon id="Fill-341" fill="#ADBDC4" points="41 10 49 10 49 4 41 4"></polygon><polygon id="Fill-342" fill="#C5CCCD" points="15 10 23 10 23 4 15 4"></polygon><path d="M50,4 L40,4 C38.895,4 38,3.104 38,2 C38,0.895 38.895,0 40,0 L50,0 C51.104,0 52,0.895 52,2 C52,3.104 51.104,4 50,4" id="Fill-343" fill="#7CB65A"></path><path d="M24,4 L14,4 C12.895,4 12,3.104 12,2 C12,0.895 12.895,0 14,0 L24,0 C25.104,0 26,0.895 26,2 C26,3.104 25.104,4 24,4" id="Fill-344" fill="#7CB65A"></path><path d="M45,4 L41,4 L41,6 L44,6 C44.552,6 45,6.448 45,7 L45,10 L49,10 L49,4 L45,4" id="Fill-345" fill="#8BA6B1"></path><path d="M19,4 L15,4 L15,6 L18,6 C18.552,6 19,6.448 19,7 L19,10 L23,10 L23,4 L19,4" id="Fill-346" fill="#8BA6B1"></path><path d="M24,0 L19,0 L19,4 L24,4 C25.104,4 26,3.104 26,2 C26,0.896 25.104,0 24,0" id="Fill-347" fill="#69994E"></path><path d="M50,0 L45,0 L45,4 L50,4 C51.104,4 52,3.104 52,2 C52,0.896 51.104,0 50,0" id="Fill-348" fill="#69994E"></path><path d="M55,28 C55,22.486 50.514,18 45,18 L45,38 C50.514,38 55,33.514 55,28" id="Fill-349" fill="#C5CCCD"></path><path d="M29,28 C29,22.486 24.514,18 19,18 L19,38 C24.514,38 29,33.514 29,28" id="Fill-350" fill="#C5CCCD"></path><path d="M45,30 C44.488,30 43.977,29.805 43.586,29.414 C42.805,28.633 42.805,27.367 43.586,26.586 L46.586,23.586 C47.366,22.805 48.634,22.805 49.414,23.586 C50.195,24.367 50.195,25.633 49.414,26.414 L46.414,29.414 C46.023,29.805 45.512,30 45,30" id="Fill-351" fill="#546670"></path><path d="M22,33 C21.488,33 20.976,32.805 20.586,32.414 L17.586,29.414 C16.805,28.633 16.805,27.367 17.586,26.586 C18.366,25.805 19.634,25.805 20.414,26.586 L23.414,29.586 C24.195,30.367 24.195,31.633 23.414,32.414 C23.024,32.805 22.512,33 22,33" id="Fill-352" fill="#546670"></path><path d="M45,30 C45.512,30 46.023,29.805 46.414,29.414 L49.414,26.414 C50.195,25.633 50.195,24.367 49.414,23.586 L43.586,29.414 C43.977,29.805 44.488,30 45,30" id="Fill-353" fill="#30404D"></path><path d="M17,28 C17,28.512 17.195,29.023 17.586,29.414 L20.586,32.414 C21.367,33.195 22.633,33.195 23.414,32.414 L17.586,26.586 C17.195,26.977 17,27.488 17,28" id="Fill-354" fill="#30404D"></path></g></g><path d="M92.0304563,49.8090648 L75.1350246,49.8090648 C72.1406714,49.8090648 69.7043501,47.3727435 69.7043501,44.3783903 C69.7043501,42.0484318 71.1940143,40.0010314 73.3778333,39.2559006 C73.8336298,34.312255 77.9708685,30.5 82.9793322,30.5 C87.8605189,30.5 91.9641658,34.1793785 92.5513666,38.9724676 C95.3023532,39.2355718 97.4611308,41.5596349 97.4611308,44.3783903 C97.4611308,47.3727435 95.0248095,49.8090648 92.0304563,49.8090648 Z" id="Cloud" fill="#FFFFFF" fill-rule="nonzero" opacity="0.900000036"></path><g id="Azure-Hex-Border" stroke="#0078D4" stroke-width="4"><path d="M45.5620172,3.25834249 L6.67338401,26.8942953 C3.79673288,28.6432593 2,31.9508238 2,35.5582677 L2,82.4417323 C2,86.0486597 3.79764663,89.3586805 6.67318764,91.1055853 L45.560618,114.742485 C46.9289662,115.572418 48.4546283,116 50,116 C51.5458817,116 53.0723633,115.572188 54.4362178,114.743457 L93.3268764,91.1055464 C96.2016145,89.3583456 98,86.0476286 98,82.4417323 L98,35.5582677 C98,31.9518547 96.202529,28.6435953 93.3268966,26.8944659 L54.4351916,3.25759524 C53.0721095,2.42798656 51.5462432,2 50,2 C48.4543284,2 46.9293388,2.42772325 45.5620146,3.25834407 Z M45.5620146,3.25834407 C45.5619597,3.25837737 45.5619049,3.25841067 45.5618501,3.25844398 L45.5621963,3.25823359 L45.5620172,3.25834249 Z"></path></g></g></g></g></svg>

<svg xmlns="http://www.w3.org/2000/svg" viewBox="0 0 100 118"><defs><filter x="-1.6%" y="-1.5%" width="103.1%" height="106%" filterUnits="objectBoundingBox" id="a"><feOffset dy="2" in="SourceAlpha" result="shadowOffsetOuter1"/><feColorMatrix values="0 0 0 0 0 0 0 0 0 0 0 0 0 0 0 0 0 0 0.104534647 0" in="shadowOffsetOuter1" result="shadowMatrixOuter1"/><feMerge><feMergeNode in="shadowMatrixOuter1"/><feMergeNode in="SourceGraphic"/></feMerge></filter></defs><g fill="none" fill-rule="evenodd"><path d="M44.742 3.497A10.056 10.056 0 0 1 50 2c1.813 0 3.627.499 5.256 1.497l37.335 22.835C95.933 28.377 98 32.203 98 36.352v45.295c0 4.148-2.067 7.977-5.409 10.021l-37.335 22.837A10.056 10.056 0 0 1 50 116c-1.813 0-3.626-.499-5.258-1.495L7.41 91.668C4.066 89.624 2 85.795 2 81.648V36.352c0-4.15 2.066-7.976 5.409-10.021L44.743 3.497z" fill="#D9EAF8"/><path d="M20.87 77.585h-8.905c-3 0-5.44-2.44-5.44-5.441 0-3 2.44-5.441 5.44-5.441.276 0 .552.025.85.077a8.366 8.366 0 0 1 8.054-6.013c4.637 0 8.41 3.772 8.41 8.41 0 4.636-3.773 8.408-8.41 8.408z" fill="#FFF" fill-rule="nonzero"/><g filter="url(#a)" transform="translate(18 26.5)"><path d="M53 62.441H11a2 2 0 0 1 0-4h42a2 2 0 0 1 0 4" fill="#182A37"/><path fill="#182A37" d="M29 60.441h6v-21h-6z"/><path d="M29 41.44v1h2a1 1 0 0 1 1 1v12h3v-14h-6M9 60.441a2 2 0 0 0 2 2h42a2 2 0 0 0 2-2H9" fill="#12202B"/><path d="M40 64.441c0 .55-.45 1-1 1H25c-.55 0-1-.45-1-1v-8c0-.55.45-1 1-1h14c.55 0 1 .45 1 1v8" fill="#30404D"/><path d="M39 55.441h-7v6a2 2 0 0 1-2 2h-6v1c0 .55.45 1 1 1h14c.55 0 1-.45 1-1v-8c0-.55-.45-1-1-1" fill="#182A37"/><g><path d="M60 10H4c-2.206 0-4 1.794-4 4v28c0 2.206 1.794 4 4 4h56c2.205 0 4-1.794 4-4V14c0-2.206-1.795-4-4-4" fill="#30404D"/><path d="M4 46h56a4 4 0 0 0 4-4V14a4 4 0 0 0-4-4H32v30a2 2 0 0 1-2 2H0c0 2.206 1.794 4 4 4" fill="#182A37"/><path d="M19 18c-5.514 0-10 4.486-10 10s4.486 10 10 10 10-4.486 10-10-4.486-10-10-10M45 18c-5.514 0-10 4.486-10 10s4.486 10 10 10 10-4.486 10-10-4.486-10-10-10" fill="#E1E4E1"/><path d="M45 18c-5.514 0-10 4.486-10 10s4.486 10 10 10 10-4.486 10-10-4.486-10-10-10zm0 2c4.411 0 8 3.589 8 8s-3.589 8-8 8-8-3.589-8-8 3.589-8 8-8zM19 18c-5.514 0-10 4.486-10 10s4.486 10 10 10 10-4.486 10-10-4.486-10-10-10zm0 2c4.411 0 8 3.589 8 8s-3.589 8-8 8-8-3.589-8-8 3.589-8 8-8z" fill="#C5CCCD"/><path fill="#ADBDC4" d="M41 10h8V4h-8z"/><path fill="#C5CCCD" d="M15 10h8V4h-8z"/><path d="M50 4H40a2 2 0 0 1 0-4h10a2 2 0 0 1 0 4M24 4H14a2 2 0 0 1 0-4h10a2 2 0 0 1 0 4" fill="#7CB65A"/><path d="M45 4h-4v2h3a1 1 0 0 1 1 1v3h4V4h-4M19 4h-4v2h3a1 1 0 0 1 1 1v3h4V4h-4" fill="#8BA6B1"/><path d="M24 0h-5v4h5a2 2 0 0 0 0-4M50 0h-5v4h5a2 2 0 0 0 0-4" fill="#69994E"/><path d="M55 28c0-5.514-4.486-10-10-10v20c5.514 0 10-4.486 10-10M29 28c0-5.514-4.486-10-10-10v20c5.514 0 10-4.486 10-10" fill="#C5CCCD"/><path d="M45 30a2 2 0 0 1-1.414-3.414l3-3a2 2 0 1 1 2.828 2.828l-3 3A1.992 1.992 0 0 1 45 30M22 33a1.99 1.99 0 0 1-1.414-.586l-3-3a2 2 0 1 1 2.828-2.828l3 3A2 2 0 0 1 22 33" fill="#546670"/><path d="M45 30c.512 0 1.023-.195 1.414-.586l3-3a2 2 0 0 0 0-2.828l-5.828 5.828c.391.391.902.586 1.414.586M17 28c0 .512.195 1.023.586 1.414l3 3a2 2 0 0 0 2.828 0l-5.828-5.828A1.992 1.992 0 0 0 17 28" fill="#30404D"/></g></g><path d="M92.03 49.81H75.135a5.437 5.437 0 0 1-5.43-5.432c0-2.33 1.489-4.377 3.673-5.122a9.635 9.635 0 0 1 9.601-8.756c4.882 0 8.985 3.68 9.572 8.472a5.438 5.438 0 0 1 4.91 5.406 5.437 5.437 0 0 1-5.43 5.431z" fill="#FFF" fill-rule="nonzero" opacity=".9"/><path d="M45.562 3.258L6.673 26.894C3.797 28.644 2 31.951 2 35.558v46.884c0 3.607 1.798 6.917 4.673 8.664l38.888 23.636A8.539 8.539 0 0 0 50 116a8.525 8.525 0 0 0 4.436-1.257l38.89-23.637C96.203 89.358 98 86.048 98 82.442V35.558c0-3.606-1.797-6.914-4.673-8.664L54.435 3.258A8.511 8.511 0 0 0 50 2c-1.546 0-3.07.428-4.438 1.258zm0 0s0 0 0 0h0z" stroke="#0078D4" stroke-width="4"/></g></svg>
